svgs/sharp-regular/sd-card.svg

<svg xmlns="http://www.w3.org/2000/svg" viewBox="0 0 384 512"><!--! Font Awesome Pro 6.6.0 by @fontawesome - https://fontawesome.com License - https://fontawesome.com/license (Commercial License) Copyright 2024 Fonticons, Inc. --><path d="M336 48l0 416L48 464l0-316.1L147.9 48 336 48zM128 0L0 128 0 464l0 48 48 0 288 0 48 0 0-48 0-416 0-48L336 0 128 0zm48 96l0-16-32 0 0 16 0 64 0 16 32 0 0-16 0-64zm64 0l0-16-32 0 0 16 0 64 0 16 32 0 0-16 0-64zm64 0l0-16-32 0 0 16 0 64 0 16 32 0 0-16 0-64z"/></svg>

<svg xmlns="http://www.w3.org/2000/svg" viewBox="0 0 384 512"><!--! Font Awesome Pro 6.4.2 by @fontawesome - https://fontawesome.com License - https://fontawesome.com/license (Commercial License) Copyright 2023 Fonticons, Inc. --><path d="M336 48V464H48V147.9L147.9 48H336zM128 0L0 128V464v48H48 336h48V464 48 0H336 128zm48 96V80H144V96v64 16h32V160 96zm64 0V80H208V96v64 16h32V160 96zm64 0V80H272V96v64 16h32V160 96z"/></svg>
